X:42 
T:Johnny's Grey Breeks 
B:OFPC2.77 (as "Johny's)
C:file ID: ofpc.2/42jgb
Y:"Scotch"
Q:180
M:4/4
R:reel
L:1/8
K:D
%%MIDI program 1 73 % flute
de|f2f2 gfed|B6 dA|F2 EF D3E|F2A2A2 de|
f2 ef aged|B4 d4|F2 ED E2 F2|d2 B2 B2 :|
zd|A3B d3e|f4 e2d2|e3f a2 ba|f2 e4 fg|
b3[ac']b2 af|a2a2 bafe|d2 b2 afe>f|d2B2B2 :|

